X: 8329
T: Cota Mor Ealasaid
R: reel
M: 4/4
K: Amixolydian
|:f|edc2 dcBd|cAA/A/A g2fa|edc2 dBBd|egdB A2A:|
|:B|c2ce dBBd|cAA/A/A g2fa|c2ce dBBd|egdB A2A:|

